images/LinkedIn.svg

<svg width="64" height="64" viewBox="0 0 64 64" fill="none" xmlns="http://www.w3.org/2000/svg">
<rect width="64" height="64" rx="20" fill="#0077B5"/>
<path d="M50.0974 45.2074C48.1665 45.1615 46.2815 45.1615 44.3506 45.2074C43.9368 45.2074 43.8448 45.1155 43.8448 44.7017C43.8448 41.2996 43.8448 37.8514 43.8448 34.4493C43.8448 33.6677 43.7989 32.8861 43.569 32.1505C42.8793 29.7598 40.1208 28.8863 38.1439 30.4954C37.0865 31.323 36.6727 32.4723 36.6727 33.8516C36.6727 37.0699 36.6727 40.2881 36.6727 43.5064C36.6727 43.9201 36.6267 44.3339 36.6727 44.7937C36.7187 45.1615 36.5348 45.2534 36.213 45.2074C34.236 45.2074 32.3051 45.2074 30.3282 45.2074C29.9604 45.2074 29.8684 45.1155 29.8684 44.7477C29.9144 41.8513 29.9144 38.9548 29.9144 36.0124C29.9144 32.4264 29.9144 28.8403 29.8684 25.3002C29.8684 24.8865 29.9604 24.7945 30.3282 24.7945C32.3051 24.7945 34.236 24.7945 36.213 24.7945C36.5808 24.7945 36.6727 24.8865 36.6727 25.2543C36.6727 25.9899 36.6727 26.7255 36.6727 27.599C36.8106 27.4611 36.8566 27.4151 36.9026 27.3691C38.6956 24.7485 41.2242 24.0129 44.2126 24.4727C47.6608 25.0244 49.8676 27.4151 50.4193 31.0931C50.5572 31.9666 50.6032 32.8401 50.6032 33.7137C50.6032 37.3917 50.6032 41.0237 50.6032 44.7017C50.6032 45.0695 50.5112 45.2074 50.0974 45.2074Z" fill="#F5F5F7"/>
<path d="M26.1927 35.0015C26.1927 38.2198 26.1927 41.438 26.1927 44.6563C26.1927 45.07 26.1007 45.208 25.6869 45.208C23.756 45.162 21.825 45.208 19.8941 45.208C19.5263 45.208 19.4343 45.116 19.4343 44.7482C19.4343 38.2657 19.4343 31.7373 19.4343 25.2548C19.4343 24.933 19.5263 24.795 19.8941 24.795C21.871 24.795 23.8479 24.795 25.8249 24.795C26.2386 24.795 26.2846 24.933 26.2846 25.3008C26.1927 28.519 26.1927 31.7373 26.1927 35.0015Z" fill="#F5F5F7"/>
<path d="M26.5159 19.4614C26.0561 21.3004 24.1712 22.3578 22.0103 21.99C19.7116 21.6222 18.4243 19.3694 19.2518 17.1626C19.8035 15.7834 21.1368 14.9558 22.8379 15.0018C25.4125 14.9558 27.1136 17.0247 26.5159 19.4614Z" fill="#F5F5F7"/>
</svg>

<svg width="64" height="64" fill="none" xmlns="http://www.w3.org/2000/svg"><rect width="64" height="64" rx="20" fill="#0077B5"/><path d="M50.097 45.207c-1.93-.046-3.816-.046-5.746 0-.414 0-.506-.092-.506-.505V34.449c0-.781-.046-1.563-.276-2.298-.69-2.391-3.448-3.265-5.425-1.656-1.057.828-1.471 1.977-1.471 3.357v9.654c0 .414-.046.828 0 1.288.046.367-.138.46-.46.413h-5.885c-.368 0-.46-.092-.46-.46.046-2.896.046-5.792.046-8.735 0-3.586 0-7.172-.046-10.712 0-.413.092-.506.46-.506h5.885c.368 0 .46.093.46.46V27.6l.23-.23c1.793-2.62 4.321-3.356 7.31-2.896 3.448.551 5.655 2.942 6.206 6.62.138.874.184 1.747.184 2.62v10.989c0 .367-.092.505-.506.505zM26.193 35.002v9.654c0 .414-.092.552-.506.552-1.931-.046-3.862 0-5.793 0-.368 0-.46-.092-.46-.46V25.255c0-.322.092-.46.46-.46h5.93c.415 0 .46.138.46.506-.091 3.218-.091 6.436-.091 9.7zM26.516 19.461c-.46 1.84-2.345 2.897-4.506 2.529-2.298-.368-3.586-2.62-2.758-4.827.552-1.38 1.885-2.207 3.586-2.161 2.575-.046 4.276 2.023 3.678 4.46z" fill="#F5F5F7"/></svg>
